my-portfolio/src/assets/Svgs/linkedin.svg

<?xml version="1.0" encoding="utf-8"?>
<!-- Generator: Adobe Illustrator 25.2.3, SVG Export Plug-In . SVG Version: 6.00 Build 0)  -->
<svg version="1.1" id="Layer_1" xmlns="http://www.w3.org/2000/svg" xmlns:xlink="http://www.w3.org/1999/xlink" x="0px" y="0px"
	 viewBox="0 0 382 382" style="enable-background:new 0 0 382 382;" xml:space="preserve">
<style type="text/css">
	.st0{fill:#FFFFFF;}
</style>
<path class="st0" d="M347.4,0H34.6C15.5,0,0,15.5,0,34.6v312.9C0,366.5,15.5,382,34.6,382h312.9c19.1,0,34.6-15.5,34.6-34.6V34.6
	C382,15.5,366.5,0,347.4,0z M118.2,329.8c0,5.6-4.5,10.1-10.1,10.1H65.3c-5.6,0-10.1-4.5-10.1-10.1V150.4c0-5.6,4.5-10.1,10.1-10.1
	h42.8c5.6,0,10.1,4.5,10.1,10.1V329.8z M86.7,123.4c-22.5,0-40.7-18.2-40.7-40.7s18.2-40.7,40.7-40.7s40.7,18.2,40.7,40.7
	S109.2,123.4,86.7,123.4z M341.9,330.7c0,5.1-4.1,9.2-9.2,9.2h-45.9c-5.1,0-9.2-4.1-9.2-9.2v-84.2c0-12.6,3.7-55-32.8-55
	c-28.3,0-34.1,29.1-35.2,42.1v97.1c0,5.1-4.1,9.2-9.2,9.2h-44.4c-5.1,0-9.2-4.1-9.2-9.2V149.6c0-5.1,4.1-9.2,9.2-9.2h44.4
	c5.1,0,9.2,4.1,9.2,9.2v15.7c10.5-15.8,26.1-27.9,59.3-27.9c73.6,0,73.1,68.7,73.1,106.5L341.9,330.7L341.9,330.7z"/>
</svg>

<svg width="382" height="382" viewBox="0 0 382 382" fill="none" xmlns="http://www.w3.org/2000/svg">
<g clip-path="url(#clip0_2_5)">
<path d="M347.4 0H34.6C15.5 0 0 15.5 0 34.6V347.5C0 366.5 15.5 382 34.6 382H347.5C366.6 382 382.1 366.5 382.1 347.4V34.6C382 15.5 366.5 0 347.4 0ZM118.2 329.8C118.2 335.4 113.7 339.9 108.1 339.9H65.3C59.7 339.9 55.2 335.4 55.2 329.8V150.4C55.2 144.8 59.7 140.3 65.3 140.3H108.1C113.7 140.3 118.2 144.8 118.2 150.4V329.8V329.8ZM86.7 123.4C64.2 123.4 46 105.2 46 82.7C46 60.2 64.2 42 86.7 42C109.2 42 127.4 60.2 127.4 82.7C127.4 105.2 109.2 123.4 86.7 123.4ZM341.9 330.7C341.9 335.8 337.8 339.9 332.7 339.9H286.8C281.7 339.9 277.6 335.8 277.6 330.7V246.5C277.6 233.9 281.3 191.5 244.8 191.5C216.5 191.5 210.7 220.6 209.6 233.6V330.7C209.6 335.8 205.5 339.9 200.4 339.9H156C150.9 339.9 146.8 335.8 146.8 330.7V149.6C146.8 144.5 150.9 140.4 156 140.4H200.4C205.5 140.4 209.6 144.5 209.6 149.6V165.3C220.1 149.5 235.7 137.4 268.9 137.4C342.5 137.4 342 206.1 342 243.9L341.9 330.7Z" fill="#131110"/>
</g>
<defs>
<clipPath id="clip0_2_5">
<rect width="382" height="382" fill="white"/>
</clipPath>
</defs>
</svg>
